docs/images/flow.svg

<svg fill="none" height="785" viewBox="0 0 1589 785" width="1589" xmlns="http://www.w3.org/2000/svg"><path d="m70.5863 11.4134c-33.0512 0-59.8466 26.7905-59.8466 59.8408v643.4048c0 33.05 26.7954 59.841 59.8466 59.841h1447.8237c33.06 0 59.85-26.791 59.85-59.841v-643.4047c0-33.0504-26.79-59.8409-59.85-59.8409z" fill="#fff" stroke="#f2f2f2" stroke-width="21"/><rect fill="#bde3ff" height="175.279" rx="6" stroke="#22b4ff" stroke-linecap="round" stroke-width="10" width="438.197" x="160.397" y="130.476"/><path d="m1186.55 131.892c1.43-.572 3.03-.572 4.46 0l213.1 81.639c5.03 2.012 5.03 9.13 0 11.142l-213.1 81.639c-1.43.573-3.03.573-4.46 0l-213.098-81.639c-5.029-2.012-5.029-9.13 0-11.142z" fill="#ffe8a3" stroke="#ddbc00" stroke-linecap="round" stroke-width="10"/><path d="m611.594 213.602c-3.037 0-5.5 2.462-5.5 5.5s2.463 5.5 5.5 5.5zm290.087 29.921c0 3.038 3.72 5.185 6.35 3.667l42.299-24.421c2.63-1.519 2.63-5.815 0-7.334l-42.299-24.421c-2.63-1.518-6.35.63-6.35 3.667zm-290.087-18.921h295.587v-11h-295.587z" fill="#8b8b8b"/><rect fill="#aff4c6" height="175.279" rx="70.1116" stroke="#65bf8c" stroke-dasharray="20 20" stroke-linecap="round" stroke-width="10" width="438.197" x="923.295" y="508.47"/><path d="m1194.28 319.742c0-3.038-2.46-5.5-5.5-5.5s-5.5 2.462-5.5 5.5zm-338.985 300.789c0 3.037 3.72 5.185 6.351 3.666l42.298-24.421c2.631-1.518 2.631-5.814 0-7.333l-42.298-24.421c-2.631-1.519-6.351.629-6.351 3.667zm43.888-29.921c-3.038 0-5.5 2.462-5.5 5.5 0 3.037 2.462 5.5 5.5 5.5zm-22.224 11c3.038 0 5.5-2.463 5.5-5.5 0-3.038-2.462-5.5-5.5-5.5zm-22.224-11c-3.037 0-5.5 2.462-5.5 5.5 0 3.037 2.463 5.5 5.5 5.5zm-22.224 11c3.038 0 5.5-2.463 5.5-5.5 0-3.038-2.462-5.5-5.5-5.5zm-22.224-11c-3.037 0-5.5 2.462-5.5 5.5 0 3.037 2.463 5.5 5.5 5.5zm-22.224 11c3.038 0 5.5-2.463 5.5-5.5 0-3.038-2.462-5.5-5.5-5.5zm-22.224-11c-3.037 0-5.5 2.462-5.5 5.5 0 3.037 2.463 5.5 5.5 5.5zm-22.224 11c3.038 0 5.5-2.463 5.5-5.5 0-3.038-2.462-5.5-5.5-5.5zm-22.223-11c-3.038 0-5.5 2.462-5.5 5.5 0 3.037 2.462 5.5 5.5 5.5zm-22.224 11c3.037 0 5.5-2.463 5.5-5.5 0-3.038-2.463-5.5-5.5-5.5zm-22.224-11c-3.038 0-5.5 2.462-5.5 5.5 0 3.037 2.462 5.5 5.5 5.5zm-22.224 11c3.037 0 5.5-2.463 5.5-5.5 0-3.038-2.463-5.5-5.5-5.5zm-22.224-11c-3.038 0-5.5 2.462-5.5 5.5 0 3.037 2.462 5.5 5.5 5.5zm-22.224 11c3.037 0 5.5-2.463 5.5-5.5 0-3.038-2.463-5.5-5.5-5.5zm-22.224-11c-3.038 0-5.5 2.462-5.5 5.5 0 3.037 2.462 5.5 5.5 5.5zm-22.224 11c3.038 0 5.5-2.463 5.5-5.5 0-3.038-2.462-5.5-5.5-5.5zm-22.224-11c-3.037 0-5.5 2.462-5.5 5.5 0 3.037 2.463 5.5 5.5 5.5zm-22.224 11c3.038 0 5.5-2.463 5.5-5.5 0-3.038-2.462-5.5-5.5-5.5zm-22.224-11c-3.037 0-5.5 2.462-5.5 5.5 0 3.037 2.463 5.5 5.5 5.5zm-22.224 11c3.038 0 5.5-2.463 5.5-5.5 0-3.038-2.462-5.5-5.5-5.5zm-22.224-11c-3.037 0-5.5 2.462-5.5 5.5 0 3.037 2.463 5.5 5.5 5.5zm-22.224 11c3.038 0 5.5-2.463 5.5-5.5 0-3.038-2.462-5.5-5.5-5.5zm-22.224-11c-3.037 0-5.5 2.462-5.5 5.5 0 3.037 2.463 5.5 5.5 5.5zm-22.223 11c3.037 0 5.5-2.463 5.5-5.5 0-3.038-2.463-5.5-5.5-5.5zm-22.224-11c-3.038 0-5.5 2.462-5.5 5.5 0 3.037 2.462 5.5 5.5 5.5zm-22.224 11c3.037 0 5.5-2.463 5.5-5.5 0-3.038-2.463-5.5-5.5-5.5zm-22.224-11c-3.038 0-5.5 2.462-5.5 5.5 0 3.037 2.462 5.5 5.5 5.5zm-22.224 11c3.037 0 5.5-2.463 5.5-5.5 0-3.038-2.463-5.5-5.5-5.5zm-18.192-12.402c-2.806-1.164-6.024.168-7.188 2.974-1.163 2.806.168 6.023 2.974 7.187zm-20.179-5.805c1.163 2.806 4.381 4.138 7.187 2.974 2.806-1.163 4.137-4.381 2.974-7.187zm8.759-21.308c0-3.038-2.463-5.5-5.5-5.5-3.038 0-5.5 2.462-5.5 5.5zm-11-20.031c0 3.038 2.462 5.5 5.5 5.5 3.037 0 5.5-2.462 5.5-5.5zm11-20.03c0-3.038-2.463-5.5-5.5-5.5-3.038 0-5.5 2.462-5.5 5.5zm-11-20.03c0 3.037 2.462 5.5 5.5 5.5 3.037 0 5.5-2.463 5.5-5.5zm11-20.031c0-3.037-2.463-5.5-5.5-5.5-3.038 0-5.5 2.463-5.5 5.5zm-11-20.03c0 3.038 2.462 5.5 5.5 5.5 3.037 0 5.5-2.462 5.5-5.5zm11-20.03c0-3.038-2.463-5.5-5.5-5.5-3.038 0-5.5 2.462-5.5 5.5zm-11-20.031c0 3.038 2.462 5.5 5.5 5.5 3.037 0 5.5-2.462 5.5-5.5zm12.402-17.095c1.163-2.806-.168-6.024-2.974-7.187-2.806-1.164-6.024.168-7.187 2.974zm5.804-20.179c-2.806 1.163-4.137 4.381-2.973 7.187 1.163 2.806 4.381 4.137 7.187 2.974zm22.253 8.759c3.038 0 5.5-2.462 5.5-5.5 0-3.037-2.462-5.5-5.5-5.5zm21.919-11c-3.037 0-5.5 2.463-5.5 5.5 0 3.038 2.463 5.5 5.5 5.5zm21.919 11c3.038 0 5.5-2.462 5.5-5.5 0-3.037-2.462-5.5-5.5-5.5zm21.919-11c-3.038 0-5.5 2.463-5.5 5.5 0 3.038 2.462 5.5 5.5 5.5zm21.919 11c3.037 0 5.5-2.462 5.5-5.5 0-3.037-2.463-5.5-5.5-5.5zm21.919-11c-3.038 0-5.5 2.463-5.5 5.5 0 3.038 2.462 5.5 5.5 5.5zm21.918 11c3.038 0 5.5-2.462 5.5-5.5 0-3.037-2.462-5.5-5.5-5.5zm21.919-11c-3.037 0-5.5 2.463-5.5 5.5 0 3.038 2.463 5.5 5.5 5.5zm21.919 11c3.038 0 5.5-2.462 5.5-5.5 0-3.037-2.462-5.5-5.5-5.5zm21.919-11c-3.037 0-5.5 2.463-5.5 5.5 0 3.038 2.463 5.5 5.5 5.5zm21.919 11c3.037 0 5.5-2.462 5.5-5.5 0-3.037-2.463-5.5-5.5-5.5zm21.919-11c-3.038 0-5.5 2.463-5.5 5.5 0 3.038 2.462 5.5 5.5 5.5zm21.919 11c3.037 0 5.5-2.462 5.5-5.5 0-3.037-2.463-5.5-5.5-5.5zm21.918-11c-3.037 0-5.5 2.463-5.5 5.5 0 3.038 2.463 5.5 5.5 5.5zm21.919 11c3.038 0 5.5-2.462 5.5-5.5 0-3.037-2.462-5.5-5.5-5.5zm21.919-11c-3.037 0-5.5 2.463-5.5 5.5 0 3.038 2.463 5.5 5.5 5.5zm21.919 11c3.038 0 5.5-2.462 5.5-5.5 0-3.037-2.462-5.5-5.5-5.5zm21.919-11c-3.038 0-5.5 2.463-5.5 5.5 0 3.038 2.462 5.5 5.5 5.5zm21.919 11c3.037 0 5.5-2.462 5.5-5.5 0-3.037-2.463-5.5-5.5-5.5zm21.919-11c-3.038 0-5.5 2.463-5.5 5.5 0 3.038 2.462 5.5 5.5 5.5zm21.918 11c3.038 0 5.5-2.462 5.5-5.5 0-3.037-2.462-5.5-5.5-5.5zm21.919-11c-3.037 0-5.5 2.463-5.5 5.5 0 3.038 2.463 5.5 5.5 5.5zm21.919 11c3.038 0 5.5-2.462 5.5-5.5 0-3.037-2.462-5.5-5.5-5.5zm21.919-11c-3.037 0-5.5 2.463-5.5 5.5 0 3.038 2.463 5.5 5.5 5.5zm21.919 11c3.038 0 5.5-2.462 5.5-5.5 0-3.037-2.462-5.5-5.5-5.5zm21.919-11c-3.038 0-5.5 2.463-5.5 5.5 0 3.038 2.462 5.5 5.5 5.5zm21.919 11c3.037 0 5.5-2.462 5.5-5.5 0-3.037-2.463-5.5-5.5-5.5zm21.919-11c-3.038 0-5.5 2.463-5.5 5.5 0 3.038 2.462 5.5 5.5 5.5zm21.918 11c3.038 0 5.5-2.462 5.5-5.5 0-3.037-2.462-5.5-5.5-5.5zm21.919-11c-3.037 0-5.5 2.463-5.5 5.5 0 3.038 2.463 5.5 5.5 5.5zm21.919 11c3.038 0 5.5-2.462 5.5-5.5 0-3.037-2.462-5.5-5.5-5.5zm21.919-11c-3.037 0-5.5 2.463-5.5 5.5 0 3.038 2.463 5.5 5.5 5.5zm21.921 11c3.04 0 5.5-2.462 5.5-5.5 0-3.037-2.46-5.5-5.5-5.5zm21.92-11c-3.04 0-5.5 2.463-5.5 5.5 0 3.038 2.46 5.5 5.5 5.5zm21.92 11c3.03 0 5.5-2.462 5.5-5.5 0-3.037-2.47-5.5-5.5-5.5zm21.91-11c-3.03 0-5.5 2.463-5.5 5.5 0 3.038 2.47 5.5 5.5 5.5zm21.92 11c3.04 0 5.5-2.462 5.5-5.5 0-3.037-2.46-5.5-5.5-5.5zm21.92-11c-3.04 0-5.5 2.463-5.5 5.5 0 3.038 2.46 5.5 5.5 5.5zm21.92 11c3.04 0 5.5-2.462 5.5-5.5 0-3.037-2.46-5.5-5.5-5.5zm21.92-11c-3.04 0-5.5 2.463-5.5 5.5 0 3.038 2.46 5.5 5.5 5.5zm22.25 8.76c2.81-1.164 4.14-4.382 2.98-7.188-1.17-2.806-4.38-4.137-7.19-2.973zm5.81-20.18c-1.17 2.806.17 6.024 2.97 7.188 2.81 1.163 6.03-.168 7.19-2.974zm12.4-18.111c0-3.038-2.46-5.5-5.5-5.5s-5.5 2.462-5.5 5.5zm-11-22.063c0 3.038 2.46 5.5 5.5 5.5s5.5-2.462 5.5-5.5zm-306.321 259.837h-22.224v11h22.224zm-44.448 0h-22.224v11h22.224zm-44.448 0h-22.224v11h22.224zm-44.448 0h-22.223v11h22.223zm-44.447 0h-22.224v11h22.224zm-44.448 0h-22.224v11h22.224zm-44.448 0h-22.224v11h22.224zm-44.448 0h-22.224v11h22.224zm-44.448 0h-22.224v11h22.224zm-44.448 0h-22.224v11h22.224zm-44.448 0h-22.224v11h22.224zm-44.447 0h-22.224v11h22.224zm-44.448 0h-22.224v11h22.224zm-44.448 0h-11.112v11h11.112zm-11.112 0c-2.519 0-4.907-.501-7.08-1.402l-4.214 10.161c3.486 1.446 7.304 2.241 11.294 2.241zm-17.098-11.42c-.902-2.174-1.402-4.562-1.402-7.08h-11c0 3.989.795 7.807 2.241 11.293zm-1.402-7.08v-10.015h-11v10.015zm0-30.046v-20.03h-11v20.03zm0-40.06v-20.031h-11v20.031zm0-40.061v-20.03h-11v20.03zm0-40.061v-10.015h-11v10.015zm0-10.015c0-2.518.5-4.906 1.402-7.08l-10.161-4.213c-1.446 3.485-2.241 7.303-2.241 11.293zm11.42-17.098c2.173-.901 4.561-1.402 7.08-1.402v-11c-3.99 0-7.808.795-11.294 2.241zm7.08-1.402h10.959v-11h-10.959zm32.878 0h21.919v-11h-21.919zm43.838 0h21.919v-11h-21.919zm43.838 0h21.918v-11h-21.918zm43.837 0h21.919v-11h-21.919zm43.838 0h21.919v-11h-21.919zm43.838 0h21.919v-11h-21.919zm43.837 0h21.919v-11h-21.919zm43.838 0h21.919v-11h-21.919zm43.838 0h21.919v-11h-21.919zm43.838 0h21.918v-11h-21.918zm43.837 0h21.919v-11h-21.919zm43.838 0h21.919v-11h-21.919zm43.838 0h21.919v-11h-21.919zm43.838 0h21.918v-11h-21.918zm43.837 0h21.919v-11h-21.919zm43.838 0h21.921v-11h-21.921zm43.841 0h21.92v-11h-21.92zm43.83 0h21.92v-11h-21.92zm43.84 0h21.92v-11h-21.92zm43.84 0h10.96v-11h-10.96zm10.96 0c3.99 0 7.81-.795 11.29-2.24l-4.21-10.161c-2.17.901-4.56 1.401-7.08 1.401zm27.26-18.206c1.44-3.486 2.24-7.304 2.24-11.294h-11c0 2.519-.5 4.907-1.4 7.08zm2.24-11.294v-11.031h-11v11.031zm0-33.094v-11.031h-11v11.031z" fill="#8b8b8b"/></svg>

<svg width="1589" height="785" viewBox="0 0 1589 785" fill="none" xmlns="http://www.w3.org/2000/svg">
<path d="M70.5863 11.4134C37.5351 11.4134 10.7397 38.2039 10.7397 71.2542V714.659C10.7397 747.709 37.5351 774.5 70.5863 774.5H1518.41C1551.47 774.5 1578.26 747.709 1578.26 714.659V71.2543C1578.26 38.2039 1551.47 11.4134 1518.41 11.4134H70.5863Z" fill="white" stroke="#F2F2F2" stroke-width="21"/>
<rect x="160.397" y="130.476" width="438.197" height="175.279" rx="6" fill="#BDE3FF" stroke="#22B4FF" stroke-width="10" stroke-linecap="round"/>
<path d="M1186.55 131.892C1187.98 131.32 1189.58 131.32 1191.01 131.892L1404.11 213.531C1409.14 215.543 1409.14 222.661 1404.11 224.673L1191.01 306.312C1189.58 306.885 1187.98 306.885 1186.55 306.312L973.452 224.673C968.423 222.661 968.423 215.543 973.452 213.531L1186.55 131.892Z" fill="#FFE8A3" stroke="#DDBC00" stroke-width="10" stroke-linecap="round"/>
<path d="M611.594 213.602C608.557 213.602 606.094 216.064 606.094 219.102C606.094 222.14 608.557 224.602 611.594 224.602V213.602ZM901.681 243.523C901.681 246.561 905.401 248.708 908.031 247.19L950.33 222.769C952.96 221.25 952.96 216.954 950.33 215.435L908.031 191.014C905.401 189.496 901.681 191.644 901.681 194.681V243.523ZM611.594 224.602H907.181V213.602H611.594V224.602Z" fill="#8B8B8B"/>
<rect x="923.295" y="508.47" width="438.197" height="175.279" rx="70.1116" fill="#AFF4C6" stroke="#65BF8C" stroke-width="10" stroke-linecap="round" stroke-dasharray="20 20"/>
<path d="M1194.28 319.742C1194.28 316.704 1191.82 314.242 1188.78 314.242C1185.74 314.242 1183.28 316.704 1183.28 319.742H1194.28ZM855.295 620.531C855.295 623.568 859.015 625.716 861.646 624.197L903.944 599.776C906.575 598.258 906.575 593.962 903.944 592.443L861.646 568.022C859.015 566.503 855.295 568.651 855.295 571.689V620.531ZM899.183 590.61C896.145 590.61 893.683 593.072 893.683 596.11C893.683 599.147 896.145 601.61 899.183 601.61V590.61ZM876.959 601.61C879.997 601.61 882.459 599.147 882.459 596.11C882.459 593.072 879.997 590.61 876.959 590.61V601.61ZM854.735 590.61C851.698 590.61 849.235 593.072 849.235 596.11C849.235 599.147 851.698 601.61 854.735 601.61V590.61ZM832.511 601.61C835.549 601.61 838.011 599.147 838.011 596.11C838.011 593.072 835.549 590.61 832.511 590.61V601.61ZM810.287 590.61C807.25 590.61 804.787 593.072 804.787 596.11C804.787 599.147 807.25 601.61 810.287 601.61V590.61ZM788.063 601.61C791.101 601.61 793.563 599.147 793.563 596.11C793.563 593.072 791.101 590.61 788.063 590.61V601.61ZM765.839 590.61C762.802 590.61 760.339 593.072 760.339 596.11C760.339 599.147 762.802 601.61 765.839 601.61V590.61ZM743.615 601.61C746.653 601.61 749.115 599.147 749.115 596.11C749.115 593.072 746.653 590.61 743.615 590.61V601.61ZM721.392 590.61C718.354 590.61 715.892 593.072 715.892 596.11C715.892 599.147 718.354 601.61 721.392 601.61V590.61ZM699.168 601.61C702.205 601.61 704.668 599.147 704.668 596.11C704.668 593.072 702.205 590.61 699.168 590.61V601.61ZM676.944 590.61C673.906 590.61 671.444 593.072 671.444 596.11C671.444 599.147 673.906 601.61 676.944 601.61V590.61ZM654.72 601.61C657.757 601.61 660.22 599.147 660.22 596.11C660.22 593.072 657.757 590.61 654.72 590.61V601.61ZM632.496 590.61C629.458 590.61 626.996 593.072 626.996 596.11C626.996 599.147 629.458 601.61 632.496 601.61V590.61ZM610.272 601.61C613.309 601.61 615.772 599.147 615.772 596.11C615.772 593.072 613.309 590.61 610.272 590.61V601.61ZM588.048 590.61C585.01 590.61 582.548 593.072 582.548 596.11C582.548 599.147 585.01 601.61 588.048 601.61V590.61ZM565.824 601.61C568.862 601.61 571.324 599.147 571.324 596.11C571.324 593.072 568.862 590.61 565.824 590.61V601.61ZM543.6 590.61C540.563 590.61 538.1 593.072 538.1 596.11C538.1 599.147 540.563 601.61 543.6 601.61V590.61ZM521.376 601.61C524.414 601.61 526.876 599.147 526.876 596.11C526.876 593.072 524.414 590.61 521.376 590.61V601.61ZM499.152 590.61C496.115 590.61 493.652 593.072 493.652 596.11C493.652 599.147 496.115 601.61 499.152 601.61V590.61ZM476.928 601.61C479.966 601.61 482.428 599.147 482.428 596.11C482.428 593.072 479.966 590.61 476.928 590.61V601.61ZM454.704 590.61C451.667 590.61 449.204 593.072 449.204 596.11C449.204 599.147 451.667 601.61 454.704 601.61V590.61ZM432.48 601.61C435.518 601.61 437.98 599.147 437.98 596.11C437.98 593.072 435.518 590.61 432.48 590.61V601.61ZM410.256 590.61C407.219 590.61 404.756 593.072 404.756 596.11C404.756 599.147 407.219 601.61 410.256 601.61V590.61ZM388.033 601.61C391.07 601.61 393.533 599.147 393.533 596.11C393.533 593.072 391.07 590.61 388.033 590.61V601.61ZM365.809 590.61C362.771 590.61 360.309 593.072 360.309 596.11C360.309 599.147 362.771 601.61 365.809 601.61V590.61ZM343.585 601.61C346.622 601.61 349.085 599.147 349.085 596.11C349.085 593.072 346.622 590.61 343.585 590.61V601.61ZM321.361 590.61C318.323 590.61 315.861 593.072 315.861 596.11C315.861 599.147 318.323 601.61 321.361 601.61V590.61ZM299.137 601.61C302.174 601.61 304.637 599.147 304.637 596.11C304.637 593.072 302.174 590.61 299.137 590.61V601.61ZM280.945 589.208C278.139 588.044 274.921 589.376 273.757 592.182C272.594 594.988 273.925 598.205 276.731 599.369L280.945 589.208ZM260.766 583.403C261.929 586.209 265.147 587.541 267.953 586.377C270.759 585.214 272.09 581.996 270.927 579.19L260.766 583.403ZM269.525 562.095C269.525 559.057 267.062 556.595 264.025 556.595C260.987 556.595 258.525 559.057 258.525 562.095H269.525ZM258.525 542.064C258.525 545.102 260.987 547.564 264.025 547.564C267.062 547.564 269.525 545.102 269.525 542.064H258.525ZM269.525 522.034C269.525 518.996 267.062 516.534 264.025 516.534C260.987 516.534 258.525 518.996 258.525 522.034H269.525ZM258.525 502.004C258.525 505.041 260.987 507.504 264.025 507.504C267.062 507.504 269.525 505.041 269.525 502.004H258.525ZM269.525 481.973C269.525 478.936 267.062 476.473 264.025 476.473C260.987 476.473 258.525 478.936 258.525 481.973H269.525ZM258.525 461.943C258.525 464.981 260.987 467.443 264.025 467.443C267.062 467.443 269.525 464.981 269.525 461.943H258.525ZM269.525 441.913C269.525 438.875 267.062 436.413 264.025 436.413C260.987 436.413 258.525 438.875 258.525 441.913H269.525ZM258.525 421.882C258.525 424.92 260.987 427.382 264.025 427.382C267.062 427.382 269.525 424.92 269.525 421.882H258.525ZM270.927 404.787C272.09 401.981 270.759 398.763 267.953 397.6C265.147 396.436 261.929 397.768 260.766 400.574L270.927 404.787ZM276.731 384.608C273.925 385.771 272.594 388.989 273.758 391.795C274.921 394.601 278.139 395.932 280.945 394.769L276.731 384.608ZM298.984 393.367C302.022 393.367 304.484 390.905 304.484 387.867C304.484 384.83 302.022 382.367 298.984 382.367V393.367ZM320.903 382.367C317.866 382.367 315.403 384.83 315.403 387.867C315.403 390.905 317.866 393.367 320.903 393.367V382.367ZM342.822 393.367C345.86 393.367 348.322 390.905 348.322 387.867C348.322 384.83 345.86 382.367 342.822 382.367V393.367ZM364.741 382.367C361.703 382.367 359.241 384.83 359.241 387.867C359.241 390.905 361.703 393.367 364.741 393.367V382.367ZM386.66 393.367C389.697 393.367 392.16 390.905 392.16 387.867C392.16 384.83 389.697 382.367 386.66 382.367V393.367ZM408.579 382.367C405.541 382.367 403.079 384.83 403.079 387.867C403.079 390.905 405.541 393.367 408.579 393.367V382.367ZM430.497 393.367C433.535 393.367 435.997 390.905 435.997 387.867C435.997 384.83 433.535 382.367 430.497 382.367V393.367ZM452.416 382.367C449.379 382.367 446.916 384.83 446.916 387.867C446.916 390.905 449.379 393.367 452.416 393.367V382.367ZM474.335 393.367C477.373 393.367 479.835 390.905 479.835 387.867C479.835 384.83 477.373 382.367 474.335 382.367V393.367ZM496.254 382.367C493.217 382.367 490.754 384.83 490.754 387.867C490.754 390.905 493.217 393.367 496.254 393.367V382.367ZM518.173 393.367C521.21 393.367 523.673 390.905 523.673 387.867C523.673 384.83 521.21 382.367 518.173 382.367V393.367ZM540.092 382.367C537.054 382.367 534.592 384.83 534.592 387.867C534.592 390.905 537.054 393.367 540.092 393.367V382.367ZM562.011 393.367C565.048 393.367 567.511 390.905 567.511 387.867C567.511 384.83 565.048 382.367 562.011 382.367V393.367ZM583.929 382.367C580.892 382.367 578.429 384.83 578.429 387.867C578.429 390.905 580.892 393.367 583.929 393.367V382.367ZM605.848 393.367C608.886 393.367 611.348 390.905 611.348 387.867C611.348 384.83 608.886 382.367 605.848 382.367V393.367ZM627.767 382.367C624.73 382.367 622.267 384.83 622.267 387.867C622.267 390.905 624.73 393.367 627.767 393.367V382.367ZM649.686 393.367C652.724 393.367 655.186 390.905 655.186 387.867C655.186 384.83 652.724 382.367 649.686 382.367V393.367ZM671.605 382.367C668.567 382.367 666.105 384.83 666.105 387.867C666.105 390.905 668.567 393.367 671.605 393.367V382.367ZM693.524 393.367C696.561 393.367 699.024 390.905 699.024 387.867C699.024 384.83 696.561 382.367 693.524 382.367V393.367ZM715.443 382.367C712.405 382.367 709.943 384.83 709.943 387.867C709.943 390.905 712.405 393.367 715.443 393.367V382.367ZM737.361 393.367C740.399 393.367 742.861 390.905 742.861 387.867C742.861 384.83 740.399 382.367 737.361 382.367V393.367ZM759.28 382.367C756.243 382.367 753.78 384.83 753.78 387.867C753.78 390.905 756.243 393.367 759.28 393.367V382.367ZM781.199 393.367C784.237 393.367 786.699 390.905 786.699 387.867C786.699 384.83 784.237 382.367 781.199 382.367V393.367ZM803.118 382.367C800.081 382.367 797.618 384.83 797.618 387.867C797.618 390.905 800.081 393.367 803.118 393.367V382.367ZM825.037 393.367C828.075 393.367 830.537 390.905 830.537 387.867C830.537 384.83 828.075 382.367 825.037 382.367V393.367ZM846.956 382.367C843.918 382.367 841.456 384.83 841.456 387.867C841.456 390.905 843.918 393.367 846.956 393.367V382.367ZM868.875 393.367C871.912 393.367 874.375 390.905 874.375 387.867C874.375 384.83 871.912 382.367 868.875 382.367V393.367ZM890.794 382.367C887.756 382.367 885.294 384.83 885.294 387.867C885.294 390.905 887.756 393.367 890.794 393.367V382.367ZM912.712 393.367C915.75 393.367 918.212 390.905 918.212 387.867C918.212 384.83 915.75 382.367 912.712 382.367V393.367ZM934.631 382.367C931.594 382.367 929.131 384.83 929.131 387.867C929.131 390.905 931.594 393.367 934.631 393.367V382.367ZM956.55 393.367C959.588 393.367 962.05 390.905 962.05 387.867C962.05 384.83 959.588 382.367 956.55 382.367V393.367ZM978.469 382.367C975.432 382.367 972.969 384.83 972.969 387.867C972.969 390.905 975.432 393.367 978.469 393.367V382.367ZM1000.39 393.367C1003.43 393.367 1005.89 390.905 1005.89 387.867C1005.89 384.83 1003.43 382.367 1000.39 382.367V393.367ZM1022.31 382.367C1019.27 382.367 1016.81 384.83 1016.81 387.867C1016.81 390.905 1019.27 393.367 1022.31 393.367V382.367ZM1044.23 393.367C1047.26 393.367 1049.73 390.905 1049.73 387.867C1049.73 384.83 1047.26 382.367 1044.23 382.367V393.367ZM1066.14 382.367C1063.11 382.367 1060.64 384.83 1060.64 387.867C1060.64 390.905 1063.11 393.367 1066.14 393.367V382.367ZM1088.06 393.367C1091.1 393.367 1093.56 390.905 1093.56 387.867C1093.56 384.83 1091.1 382.367 1088.06 382.367V393.367ZM1109.98 382.367C1106.94 382.367 1104.48 384.83 1104.48 387.867C1104.48 390.905 1106.94 393.367 1109.98 393.367V382.367ZM1131.9 393.367C1134.94 393.367 1137.4 390.905 1137.4 387.867C1137.4 384.83 1134.94 382.367 1131.9 382.367V393.367ZM1153.82 382.367C1150.78 382.367 1148.32 384.83 1148.32 387.867C1148.32 390.905 1150.78 393.367 1153.82 393.367V382.367ZM1176.07 391.127C1178.88 389.963 1180.21 386.745 1179.05 383.939C1177.88 381.133 1174.67 379.802 1171.86 380.966L1176.07 391.127ZM1181.88 370.947C1180.71 373.753 1182.05 376.971 1184.85 378.135C1187.66 379.298 1190.88 377.967 1192.04 375.161L1181.88 370.947ZM1194.28 352.836C1194.28 349.798 1191.82 347.336 1188.78 347.336C1185.74 347.336 1183.28 349.798 1183.28 352.836H1194.28ZM1183.28 330.773C1183.28 333.811 1185.74 336.273 1188.78 336.273C1191.82 336.273 1194.28 333.811 1194.28 330.773H1183.28ZM876.959 590.61H854.735V601.61H876.959V590.61ZM832.511 590.61H810.287V601.61H832.511V590.61ZM788.063 590.61H765.839V601.61H788.063V590.61ZM743.615 590.61H721.392V601.61H743.615V590.61ZM699.168 590.61H676.944V601.61H699.168V590.61ZM654.72 590.61H632.496V601.61H654.72V590.61ZM610.272 590.61H588.048V601.61H610.272V590.61ZM565.824 590.61H543.6V601.61H565.824V590.61ZM521.376 590.61H499.152V601.61H521.376V590.61ZM476.928 590.61H454.704V601.61H476.928V590.61ZM432.48 590.61H410.256V601.61H432.48V590.61ZM388.033 590.61H365.809V601.61H388.033V590.61ZM343.585 590.61H321.361V601.61H343.585V590.61ZM299.137 590.61H288.025V601.61H299.137V590.61ZM288.025 590.61C285.506 590.61 283.118 590.109 280.945 589.208L276.731 599.369C280.217 600.815 284.035 601.61 288.025 601.61V590.61ZM270.927 579.19C270.025 577.016 269.525 574.628 269.525 572.11H258.525C258.525 576.099 259.32 579.917 260.766 583.403L270.927 579.19ZM269.525 572.11V562.095H258.525V572.11H269.525ZM269.525 542.064V522.034H258.525V542.064H269.525ZM269.525 502.004V481.973H258.525V502.004H269.525ZM269.525 461.943V441.913H258.525V461.943H269.525ZM269.525 421.882V411.867H258.525V421.882H269.525ZM269.525 411.867C269.525 409.349 270.025 406.961 270.927 404.787L260.766 400.574C259.32 404.059 258.525 407.877 258.525 411.867H269.525ZM280.945 394.769C283.118 393.868 285.506 393.367 288.025 393.367V382.367C284.035 382.367 280.217 383.162 276.731 384.608L280.945 394.769ZM288.025 393.367H298.984V382.367H288.025V393.367ZM320.903 393.367H342.822V382.367H320.903V393.367ZM364.741 393.367H386.66V382.367H364.741V393.367ZM408.579 393.367H430.497V382.367H408.579V393.367ZM452.416 393.367H474.335V382.367H452.416V393.367ZM496.254 393.367H518.173V382.367H496.254V393.367ZM540.092 393.367H562.011V382.367H540.092V393.367ZM583.929 393.367H605.848V382.367H583.929V393.367ZM627.767 393.367H649.686V382.367H627.767V393.367ZM671.605 393.367H693.524V382.367H671.605V393.367ZM715.443 393.367H737.361V382.367H715.443V393.367ZM759.28 393.367H781.199V382.367H759.28V393.367ZM803.118 393.367H825.037V382.367H803.118V393.367ZM846.956 393.367H868.875V382.367H846.956V393.367ZM890.794 393.367H912.712V382.367H890.794V393.367ZM934.631 393.367H956.55V382.367H934.631V393.367ZM978.469 393.367H1000.39V382.367H978.469V393.367ZM1022.31 393.367H1044.23V382.367H1022.31V393.367ZM1066.14 393.367H1088.06V382.367H1066.14V393.367ZM1109.98 393.367H1131.9V382.367H1109.98V393.367ZM1153.82 393.367H1164.78V382.367H1153.82V393.367ZM1164.78 393.367C1168.77 393.367 1172.59 392.572 1176.07 391.127L1171.86 380.966C1169.69 381.867 1167.3 382.367 1164.78 382.367V393.367ZM1192.04 375.161C1193.48 371.675 1194.28 367.857 1194.28 363.867H1183.28C1183.28 366.386 1182.78 368.774 1181.88 370.947L1192.04 375.161ZM1194.28 363.867V352.836H1183.28V363.867H1194.28ZM1194.28 330.773V319.742H1183.28V330.773H1194.28Z" fill="#8B8B8B"/>
</svg>
